X:46
T: WONI GEH UND STEH
N: B0531
O: Europa, Mitteleuropa, Oesterreich, Steiermark
R: Wander -, Heimat - Lied
M: 3/4
L: 1/16
K: C
E2F2 | G3cc4d3c | A3DF4
D3C | B,3DB3AG3F | E8
E2F2 | G3cc4d3c | A3DF4
D3C | B,3DB3AG3B, | C4z2
G2A2G2 | G2g2f2G2A2G2 | G2f2e2
d2c2B2 | A4f2B2f2B2 | c2e2G2
G2A2G2 | G2g2f2G2A2G2 | G2f2e2
d2c2B2 | A4f2B2f2B2 | c4z4

